src/images_karasa_jaga_svg/cmd/lc_shadowed.svg

<svg height="24" width="24" xmlns="http://www.w3.org/2000/svg" xmlns:xlink="http://www.w3.org/1999/xlink"><linearGradient id="a" gradientUnits="userSpaceOnUse" x1="-96.822324" x2="101.524494" y1="-800.615054" y2="-638.331294"><stop offset="0" stop-color="#3b3e22"/><stop offset="1" stop-color="#454545" stop-opacity="0"/></linearGradient><linearGradient id="b" gradientUnits="userSpaceOnUse" x1="74.32776" x2="78.138741" y1="108.931477" y2="21.278833"><stop offset="0" stop-color="#555"/><stop offset="1"/></linearGradient><g transform="matrix(.171875 0 0 .171875 .860072 .958184)"><text style="font-size:126.751526;font-family:sans-serif;letter-spacing:0;word-spacing:0;fill-opacity:.403922;stroke-width:3.168787" x="40.629936" y="116.28584"><tspan fill-opacity=".403922" font-family="FreeSerif" font-size="133.38443" stroke-width="3.168787" x="40.629936" y="116.28584">S</tspan></text><path d="m54.892799 3.2812959v-2.79470843z" fill="#fff" fill-opacity=".756881"/><g stroke-width="3.168787"><text fill="url(#b)" font-family="sans-serif" font-size="126.751526" letter-spacing="0" word-spacing="0" x="30.053663" y="108.15025"><tspan fill="url(#b)" font-family="FreeSerif" font-size="133.38443" stroke-width="3.168787" x="30.053663" y="108.15025">S</tspan></text><path d="m59.152344 21.017578c-4.734111.371248-8.801968 2.092292-12.47461 5.482422-3.966671 3.655559-5.876953 8.176621-5.876953 14.291016 0 4.513737 1.246256 8.249678 3.806641 11.585937 2.722087 3.546962 5.954026 6.448243 9.742187 8.755859 1.472882.845997 2.945529 1.680287 4.417969 2.515626a81.4534 29.0905 0 0 0 14.404297-1.28125c-1.71366-1.049566-3.545582-2.105073-5.527344-3.166016a2.8780692 2.8780692 0 0 1 -.04297-.02344c-7.163287-3.989677-12.378462-7.624643-15.76367-11.208982-3.38858-3.587908-5.320313-7.740946-5.320313-12.113281 0-4.323837 1.6838-8.264329 4.822266-11.078125 2.172343-1.947619 4.849524-3.1651 7.8125-3.759766zm26.595703 2.44336c-1.242733 1.236594-3.020109 1.933593-4.742188 1.933593-1.260032 0-2.037048-.27585-3.43164-.677734-.402393-.115959-1.085205-.358169-1.552735-.503906 1.2566.76703 2.473746 1.645616 3.640625 2.644531 3.049073 2.563216 5.484533 5.997576 7.476563 10.064453z" fill="url(#a)"/></g></g></svg>

<?xml version="1.0" encoding="UTF-8" standalone="no"?>
<svg
   xmlns:dc="http://purl.org/dc/elements/1.1/"
   xmlns:cc="http://creativecommons.org/ns#"
   xmlns:rdf="http://www.w3.org/1999/02/22-rdf-syntax-ns#"
   xmlns:svg="http://www.w3.org/2000/svg"
   xmlns="http://www.w3.org/2000/svg"
   xmlns:xlink="http://www.w3.org/1999/xlink"
   xmlns:sodipodi="http://sodipodi.sourceforge.net/DTD/sodipodi-0.dtd"
   xmlns:inkscape="http://www.inkscape.org/namespaces/inkscape"
   height="128"
   width="128"
   version="1.1"
   id="svg21"
   sodipodi:docname="lc_shadowed.svg"
   inkscape:export-filename="/home/rizmut/Dokumen/Rizmut/Github/libreoffice-style-karasa-jaga/build/images_karasa_jaga/cmd/lc_shadowed.png"
   inkscape:export-xdpi="16.5"
   inkscape:export-ydpi="16.5"
   inkscape:version="0.92.2 (unknown)">
  <metadata
     id="metadata27">
    <rdf:RDF>
      <cc:Work
         rdf:about="">
        <dc:format>image/svg+xml</dc:format>
        <dc:type
           rdf:resource="http://purl.org/dc/dcmitype/StillImage" />
        <dc:title></dc:title>
      </cc:Work>
    </rdf:RDF>
  </metadata>
  <defs
     id="defs25">
    <linearGradient
       id="a-8"
       gradientUnits="userSpaceOnUse"
       x1="15.70367"
       x2="16.933331"
       y1="294.8226"
       y2="266.54037"
       gradientTransform="matrix(3.0992126,0,0,3.0992126,25.658748,-804.78644)">
      <stop
         offset="0"
         stop-color="#555"
         id="stop2-9" />
      <stop
         offset="1"
         id="stop4-0" />
    </linearGradient>
    <linearGradient
       id="b-2"
       gradientUnits="userSpaceOnUse"
       x1="15.703671"
       x2="16.933332"
       y1="262.85138"
       y2="288.67429"
       gradientTransform="matrix(3.0992126,0,0,3.0992126,-150.91691,-836.68369)">
      <stop
         offset="0"
         stop-color="#3b3e22"
         id="stop7" />
      <stop
         offset="1"
         stop-color="#454545"
         stop-opacity="0"
         id="stop9" />
    </linearGradient>
    <linearGradient
       inkscape:collect="always"
       xlink:href="#b-2"
       id="linearGradient2166"
       x1="17.4543"
       y1="11.638"
       x2="81.4534"
       y2="64.0009"
       gradientUnits="userSpaceOnUse" />
    <linearGradient
       inkscape:collect="always"
       xlink:href="#a-8"
       id="linearGradient2226"
       gradientUnits="userSpaceOnUse"
       gradientTransform="matrix(3.0992126,0,0,3.0992126,36.235019,-796.65085)"
       x1="15.70367"
       y1="294.8226"
       x2="16.933331"
       y2="266.54037" />
  </defs>
  <sodipodi:namedview
     pagecolor="#ffffff"
     bordercolor="#666666"
     borderopacity="1"
     objecttolerance="10"
     gridtolerance="10"
     guidetolerance="10"
     inkscape:pageopacity="0"
     inkscape:pageshadow="2"
     inkscape:window-width="1366"
     inkscape:window-height="706"
     id="namedview23"
     showgrid="true"
     inkscape:zoom="3.6875"
     inkscape:cx="46.382247"
     inkscape:cy="50.046502"
     inkscape:window-x="0"
     inkscape:window-y="0"
     inkscape:window-maximized="1"
     inkscape:current-layer="svg21"
     inkscape:snap-global="true">
    <inkscape:grid
       type="xygrid"
       id="grid837"
       spacingx="5.8181"
       spacingy="5.8181"
       empspacing="1" />
  </sodipodi:namedview>
  <linearGradient
     id="a">
    <stop
       offset="0"
       stop-color="#1c1c1c"
       id="stop2" />
    <stop
       offset=".5"
       stop-color="#888"
       id="stop4" />
    <stop
       offset="1"
       id="stop6" />
  </linearGradient>
  <linearGradient
     id="b"
     gradientUnits="userSpaceOnUse"
     x1="-192.86826546846"
     x2="-199.26656152752"
     xlink:href="#a"
     y1="109.4493765047"
     y2="-18.51654357678" />
  <linearGradient
     id="c"
     gradientUnits="userSpaceOnUse"
     x1="69.8172"
     x2="69.8172"
     xlink:href="#a"
     y1="110.5457"
     y2="-5.8163"
     gradientTransform="translate(2.000016,-0.002625)" />
  <text
     style="font-size:126.75152588px;font-family:sans-serif;letter-spacing:0;word-spacing:0;fill:#000000;stroke-width:3.16878676;fill-opacity:0.40392157;"
     x="40.629936"
     y="116.28584"
     id="text2224">
    <tspan
       style="font-size:133.38442993px;font-family:FreeSerif;fill:#000000;stroke-width:3.16878676;fill-opacity:0.40392157;"
       font-size="43.038166"
       x="40.629936"
       y="116.28584"
       id="tspan2222">S</tspan>
  </text>
  <path
     d="m54.892799 3.2812959v-2.79470843z"
     fill="#fff"
     fill-opacity=".756881"
     id="path11" />
  <text
     id="text14"
     y="108.15025"
     x="30.053663"
     style="font-size:126.75152588px;font-family:sans-serif;letter-spacing:0;word-spacing:0;fill:url(#a-8);stroke-width:3.16878676">
    <tspan
       id="tspan12"
       y="108.15025"
       x="30.053663"
       font-size="43.038166"
       style="font-size:133.38442993px;font-family:FreeSerif;fill:url(#a-8);stroke-width:3.16878676">S</tspan>
  </text>
  <path
     style="font-size:126.75152588px;font-family:sans-serif;letter-spacing:0;word-spacing:0;fill:url(#linearGradient2166);stroke-width:3.16878676;fill-opacity:1"
     d="M 59.152344 21.017578 C 54.418233 21.388826 50.350376 23.10987 46.677734 26.5 C 42.711063 30.155559 40.800781 34.676621 40.800781 40.791016 C 40.800781 45.304753 42.047037 49.040694 44.607422 52.376953 C 47.329509 55.923915 50.561448 58.825196 54.349609 61.132812 C 55.822491 61.978809 57.295138 62.813099 58.767578 63.648438 A 81.4534 29.0905 0 0 0 73.171875 62.367188 C 71.458215 61.317622 69.626293 60.262115 67.644531 59.201172 A 2.8780692 2.8780692 0 0 1 67.601562 59.177734 C 60.438274 55.188055 55.223099 51.553089 51.837891 47.96875 C 48.449311 44.380842 46.517578 40.227804 46.517578 35.855469 C 46.517578 31.531632 48.201378 27.59114 51.339844 24.777344 C 53.512187 22.829725 56.189368 21.612244 59.152344 21.017578 z M 85.748047 23.460938 C 84.505314 24.697532 82.727938 25.394531 81.005859 25.394531 C 79.745827 25.394531 78.968811 25.118681 77.574219 24.716797 C 77.171826 24.600838 76.489014 24.358628 76.021484 24.212891 C 77.278084 24.979921 78.49523 25.858507 79.662109 26.857422 C 82.711182 29.420638 85.146642 32.854998 87.138672 36.921875 L 85.748047 23.460938 z "
     id="text2153" />
</svg>
